X:1
T:3 Little Songs
T:When the Swallows Homeward Fly
T:3 Little Songs
T:Maude Valérie White
T:1. When the Swallows Homeward Fly
T:John Henry Gordon (after Carl Herlosssohn)
T:Creative Commons copyright waiver (CC0 1.0 Universal)
T:Creative Commons copyright waiver (CC0 1.0 Universal)
T:Creative Commons copyright waiver (CC0 1.0 Universal)
C:Maude Valérie White
Z:John Henry Gordon (after Carl Herlosssohn)
Z:Creative Commons copyright waiver (CC0 1.0 Universal)
%%score 1 { ( 2 4 ) | ( 3 5 ) }
L:1/8
Q:1/4=94
M:6/8
K:Bb
V:1 treble nm="Voice"
V:2 treble nm="Piano"
V:4 treble 
V:3 treble 
V:5 treble 
V:1
"^Andantino cantabile." z2 z | z6 | z2 z"^Simply and sadly." B2 c | d2 c B2 A | (B2 G) F2 G | %5
w: ||When the|swal- lows home- ward|fly _ And the|
 B2 F G2 B | c3!<(! B2 c | d2 c B2 A | (B2!<)! G)!>(! F2 G | B2 F (DE3/2) F/ | F3!>)! c2 d | %11
w: ro- ses’ bloom is|o’er, And the|night- in- gale’s sweet|song _ In the|woods is heard * no|more, Then I|
 e2 d c B2 |!<(! c3 c2 d | e f2!<)!!>(! d2 c!>)! |"^rall:"[Q:1/4=88] c3!p!"^a little slower" B2 c | %15
w: think with bit- ter|pain, Shall we|e- ver meet a-|gain? When the|
!<(! d c2 B2 A!<)! | (B2 G) F2!>(! G | B2 F D2 C | B,6-[Q:1/4=94] | B,3-!>)! B, z z | %20
w: swal- lows home- ward|fly _ And the|ro- ses’ bloom is|o’er|_ _|
 z2 z!p![Q:1/4=88] B2[Q:1/4=80]"^a little slower" c | d2 c B2 A | (B2 G) F2 G | B2 F G B2 | %24
w: When the|swans fly towards the|south _ Where the|gol- den le- mons|
 c3!<(! B2 c | d2 c B2 A!<)! | (B2 G)!mp! F2 G | B2!<(! F (D7/4E/4) F!<)! | %28
w: grow, And the|sun sinks in the|west, _ And the|hills are all _ a-|
 F3"^with feeling"!mf![Q:1/4=94] c2 d |!<(! e2 d c2 B!<)! |!f! c3!mf! c2 d | %31
w: glow! Then my|heart goes out to|you, And for-|
!<(! e f2!<)![Q:1/4=90] d2- d/"^rall:" c/ | %32
w: get- ting all _ the|
"^rall."[Q:1/4=86] c3!p![Q:1/4=93] B2 c[Q:1/4=80][Q:1/4=70] |!>(! d2 c B2 A!>)! |!p! B G2 F2 G | %35
w: pain, Hope once|more with- in me|whis- pers “You will|
[Q:1/4=90]!>(! B2 F"^molto rall:"[Q:1/4=80] D2 C |[Q:1/4=70] B,6- | B,!>)! z z z2 z[Q:1/4=50] | %38
w: sure- ly meet a-|gain!”|_|
 z6 |] %39
w: |
V:2
!p!!<(! [Bc]2 [Bd] | [Be]2 [Bd]!<)!!>(! [Bc]2 [FAc] | [FBd]3!>)! [FB]2 [EFAc] | %3
 [DFBd]2 [EFc] [FB]2 [DA] | (B2 G) [B,F]2 [B,G] | [DB]2 [B,F] [B,G]2 B | %6
 [CEFc]3!<(! [E-B]2 [Ec]!<)! |!<(! !arpeggio![DFd]2 [EFc] [FB]2 [DA] | (B2 G)!<)! F2 G | %9
 [B,DB]2 F [B,D]E>[A,CF] | [B,F]3 [FAc]2 [FBd] | [FAe]2 [FBd] [Ac] B2 | %12
 [EGc]3!<(! !arpeggio![CEFc]2 [Dd] | [EFAe] !^!f2!<)!!>(! [DFBd]2 [C=EBc]!>)! | %14
"_rall:" [CFAc]3!p! [FB]2 [EFAc] | [DFBd] [EFAc]2 [FB]2 [DA] | B2 G F2 G | %17
 !arpeggio![B,DB]2 F [B,D]>E[A,CF] | [B,F]3!mp! [Bc]2 [Bd] | [Be]2"_molto rall:" [Bd] [Bc]2 [FAc] | %20
 [FBd]3!p! B2 c | d2 c B2 A | [GB]2 G F2 G | [FB]2 F G B2 | c3 B2 c | [FBd]2 [Ac] B2 A | %26
!<(! [GB]2 G F2 G | B2 F (D7/4E/4F) | F3 c2 d | e2 d c2 B | x3 c2 d | e f2 d2 d/"_rall:"c/!<)! | %32
"_rall."!f!!>(! !arpeggio!!fermata![CFc]/(A/G/F/C/A,/)!>)!!p! B2 c | d2 c B2 A |!p! B G2 F2 G | %35
 B2 F D7/4E/4F |!<(! ([B,DF]/F,/B,/D/F/d/)!<)!!>(! !^![Fcf]2"_rall:" e!>)! | %37
!p! B,>"_molto rall:"G-G/>F/ [F,DF]3- | [F,DF] z z z2 z |] %39
V:3
 [EG]2 [DG] | [CG]2 [DG] [EG]2 [F,CE] | [B,D]3 D2 C | %3
[K:bass] [B,,F,B,]2 [C,F,A,] [D,F,B,]2 [B,,F,] | ([E,,B,,G,]2 E,) [B,,D,]2 [B,,E,] | %5
 [B,,F,]2 D, E,2 G, | !arpeggio![F,,C,F,A,]3 [F,-G,]2 [F,A,] | %7
 !arpeggio![B,,,B,,F,B,]2 [C,F,A,] [D,F,B,]2 [B,,F,] | [E,,B,,G,]2 E, D,2 E, | %9
 [F,,-D,F,]2 [F,,,F,,-] [F,,F,]2- [F,,F,]/[F,,E,]/ | [B,,,F,,D,]3[K:treble] E2 D | C2 D F [G,D]2 | %12
[K:bass] [C,G,C]3 [A,,F,A,]2 [B,,F,B,] | [C,F,C] !^!F2 [B,,F,B,]2 [G,,C,G,] | %14
 [F,,C,F,]2 [E,,E,] [D,,F,,D,]2 [C,,F,,C,] | [B,,,F,,B,,] [C,,F,,C,]2 [D,,F,,D,]2 [B,,,B,,] | %16
 [E,,B,,G,]2 E, D,2 E, | !arpeggio![F,,-D,F,]2 [F,,,F,,-] [F,,F,]2 [F,,E,] | %18
 [B,,,F,,D,]3[K:treble] [EG]2 [DG] | [CG]2 [DG] [EG]2 [F,CE] | %20
 [B,D]3[K:bass] [D,F,B,]2 [C,E,F,A,] | [B,,D,F,B,]2 [C,E,F,A,] [D,F,B,]2 [B,,F,] | %22
 [E,,B,,G,]2 E, [B,,,F,,D,]2 E, | [B,,F,]2 D, E, G,2 | %24
 !arpeggio![F,,C,F,A,]3 !arpeggio![F,,,F,,G,]2 A, | %25
 [B,,,F,,B,,]2 [C,,F,,C,] [D,,F,,D,]2 [B,,,B,,] | [E,,B,,G,]2 E, [F,,D,]2 E, | %27
 [F,,-D,F,]2 [F,,,F,,] [F,,F,]2 [F,,E,] | [B,,,F,,D,]3 [E,F,A,]2 [D,F,B,] | %29
 [C,F,C]2 [D,F,B,] [F,A,]2 [G,D] | [C,E,G,]3 [A,,F,]2 [B,,F,B,] | [C,F,C] F2 [B,,F,B,]2 [G,,C,G,] | %32
 !arpeggio![F,,C,F,A,]2 [E,F,] [D,F,B,]2 [C,E,F,A,] | [B,,D,F,B,]2 [C,E,F,A,] [D,F,B,]2 [B,,F,] | %34
 [E,,B,,G,] E,2 [F,,D,]2 E, | [F,,D,F,]2 [F,,,F,,-]"_colla voce." [F,,F,]2 [F,,E,] | %36
 [B,,,F,,D,]3[K:treble] [B,CE]3 |[K:bass] ([B,,,F,,C,]/E,/F,E) [B,,,F,,B,,]3- | %38
 [B,,,F,,B,,] z z z2 z |] %39
V:4
 x3 | x6 | x/ x/ x3/2 !fermata!x/ x3 | x6 | B,3 x3 | x6 | x6 | x6 | B,3 B,3 | x6 | x6 | x6 | x6 | %13
 x6 | x6 | x6 | B,3 B,3 | x6 | x6 | x6 | x5/2 !fermata!x/ (B/B,/F/D/) (c/C/) | %21
 (d/D/B/F/) (c/C/) (B/B,/F/D/) (A/A,/) | (E/G,/E/B,/) (G/G,/) ([B,D]/F,/D/B,/) (G/G,/) | %23
 (D/F,/D/B,/) (F/F,/) (G/G,/) (B/G/F/E/) | (c/A/G/F/C/A,/) (B/B,/F/E/) (c/C/) | %25
 (D/D/B/F/) (E/F/) (D/B,/F/D/) (F/A,/) | (E/G,/E/B,/) (G/G,/) B,/F,/D/B,/ G/G,/ | %27
 D/F,/D/B,/ D/F,/ B,/F,/B,/F,/ [A,C]/F,/ | [B,D]/F,/B,/D/F/d/ (c/C/A/F/) (D/[FB]/) | %29
 (E/c/A/F/) (D/[FB]/) (C/A/G/F/) (B,/[DG]/) | ([Cc]/D/F/E/C/G,/) (c/C/F/E/) (D/[FB]/) | %31
 (E/A/) (f/c/A/F/) (D/B/F/D/) [B,C=E] | x3 (B/B,/F/D/) (c/C/) | %33
 (d/D/B/F/) (c/C/) (B/B,/F/D/) (A/A,/) | ([EG]/B,/) (G/E/B,/G,/) (F/F,/D/B,/) (G/G,/) | %35
 ([B,D]/F,/D/B,/) (D/F,/) (B,/F,/B,/F,/) ([A,C]/F,/) | x6 | x6 | x6 |] %39
V:5
 x3 | x6 | x5/2 !fermata!x/ x3 |[K:bass] x6 | x6 | x6 | x6 | x6 | x3 F,,3 | x6 | x3[K:treble] x3 | %11
 x6 |[K:bass] x6 | x6 | x6 | x6 | x3 F,,3 | x6 | x3[K:treble] x3 | x6 | x3[K:bass] x3 | x6 | x6 | %23
 x6 | x6 | x6 | x6 | x6 | x6 | x6 | x6 | x6 | x6 | x6 | x6 | x6 | x3[K:treble] x3 |[K:bass] x6 | %38
 x6 |] %39

